receipt-text-edit.svg

<svg fill="currentColor" viewBox="0 0 24 24"><path d="m3 22 1.5-1.5L6 22l1.5-1.5L9 22l1.5-1.5v-.87L13.13 17H6v-2h9.13l2-2H6v-2h12v1.13l3-3V2l-1.5 1.5L18 2l-1.5 1.5L15 2l-1.5 1.5L12 2l-1.5 1.5L9 2 7.5 3.5 6 2 4.5 3.5 3 2zM6 9V7h12v2zm7 13v-2.04l6.13-6.13 2.04 2.04L15.04 22zm8-9.97a.5.5 0 0 1 .53.12l1.32 1.32c.2.2.2.53 0 .72l-.98.98-2.04-2.04.98-.98.02-.02c.05-.04.11-.08.17-.1"/></svg>

<svg  viewBox="0 0 24 24" fill="currentColor"><path  d="M3 22L4.5 20.5L6 22L7.5 20.5L9 22L10.5 20.5V19.63L13.13 17H6V15H15.13L17.13 13H6V11H18V12.13L21 9.13V2L19.5 3.5L18 2L16.5 3.5L15 2L13.5 3.5L12 2L10.5 3.5L9 2L7.5 3.5L6 2L4.5 3.5L3 2V22M6 9V7H18V9H6M13 22V19.96L19.13 13.83L21.17 15.87L15.04 22H13M21 12.03C21.18 11.97 21.39 12 21.53 12.15L22.85 13.47C23.05 13.67 23.05 14 22.85 14.19L21.87 15.17L19.83 13.13L20.81 12.15L20.83 12.13C20.88 12.09 20.94 12.05 21 12.03Z"/></svg>
